X:1
T:Domine Deus
T:Domine Deus
T:Kanon for fire stemmer
T:Johann Michael Haydn (1737-1805)
C:Johann Michael Haydn (1737-1805)
%%score [ 1 2 3 4 ]
L:1/8
M:2/2
K:G
V:1 treble nm="I"
V:2 treble nm="II"
V:3 treble nm="III"
V:4 treble nm="IV"
V:1
|: B6 cd | d4 F2 F2 | G2 B2 (A2 c2) | B2 z2 z2 e2 | A4 d2 d2 | G4 c2 e2 | d2 c2 B2 A2 | %7
w: Do- mi- ne|De- us sa-|lu- tis me- *|ae in|di- e cla-|ma- vi et|no- cte co- ram|
 (A4 !fermata!G2) z2 :| %8
w: te: _|
V:2
|: d4 G4 | F4 c4 | B2 G4 FA | (G2 D2 B,2) G2 | G4 F4 | (=F4 E2) G2 | (G2 A2) (B2 A2) | %7
w: in- tret,|in- tret,|o- ra- ti- o|me- * * a|in con-|spe- * ctu|tu- * o, _|
 c3 B !fermata!B2 z2 :| %8
w: Do- mi- ne|
V:3
|: G6 (AB) | c4 A4 | G2 D4 d2 | (d2 B2) (G2 B2) | ^c3 c (d2 =c2) | B3 A G2 c2 | B2 A2 G2 F2 | %7
w: De- us, _|De- us|sa- lu- tis|me- * ae, _|Do- mi- ne, _|Do- mi- ne cla-|ma- vi co- ram|
 (F4 !fermata!G2) z2 :| %8
w: te: _|
V:4
|: z2 G2 d2 D2 | z2 A2 d2 D2 | z2 d2 c2 (AF) | G3 B d2 G2 | e4 A2 A2 | (d4 G2) C2 | D4 D2 D2 | %7
w: in di- e|et no- cte|cla- ma- vi _|co- ram te, cla-|ma- vi, cla-|ma- * vi,|co- ram te|
 D3 G !fermata!G2 z2 :| %8
w: Do- mi- ne.|

